X: 1
T: Rob Fraser's March
C: Alasdair Fraser
R: march
Z: 2014 John Chambers <jc:trillian.mit.edu>
S: printed page of unknown origin from Concord Slow Scottish Session collection
M: 3/4
L: 1/16
K: D
"A"[|]\
A3d |\
"D"f4 f4 "A"e2fg | "D"f8 e3f |\
"Em"g4 B4 e3d | "A"d4 c4 B2A2 |\
"F#m"a6 f2 g2fe |
"Bm"f2a2 d6 c2 |\
"G"B6 d2 g2fd | "A"e8 "B":: edcB | \
"A"A6 c2 e2g2 | "Bm"f3e d4 c3d |
"A/C#"e4 A4 a3g |[1 "D"g4 f4 e3f |\
"Em"g2B2 e8- | "Bm"e2d2 f2d2 c2d2 |\
"G"B4 G2A2 B2g2 | "A"f4 e4 :|
[2 "D"g4 f4 a3g | "D"g2f2 e2d2 c2d2 |\
"G"B2b2 a2g2 f2e2 | "A"f2g2 e4- e2d2 |\
"D"d8 |]
